assets/sonr-icons/earth.svg

<svg xmlns="http://www.w3.org/2000/svg" width="24" height="24" fill="none" viewBox="0 0 24 24"><path stroke="#000" stroke-linecap="round" stroke-linejoin="round" stroke-width="2" d="M4.17156 8.07011L6.85387 10.0833C7.50915 10.5752 8.44975 10.3548 8.81836 9.62306C8.99021 9.28194 9.30184 9.03235 9.67226 8.93916L11.8457 8.39241C12.5416 8.21734 13.0847 7.67348 13.2587 6.97732L14.126 3.50882M21 12C21 16.9706 16.9706 21 12 21C7.02944 21 3 16.9706 3 12C3 7.02944 7.02944 3 12 3C16.9706 3 21 7.02944 21 12ZM11.4252 15.9984L10.6023 14.7641C10.2853 14.2886 10.3486 13.6553 10.7535 13.2519C10.9966 13.0096 11.3322 12.8834 11.6748 12.9052L12.5015 12.958C12.8453 12.9799 13.1771 13.0927 13.463 13.2848L14.8342 14.2063C15.4406 14.6138 15.6501 15.4083 15.3233 16.0618C15.0772 16.554 14.5742 16.8649 14.0239 16.8649H13.0443C12.3937 16.8649 11.7861 16.5397 11.4252 15.9984Z"/></svg>

<svg xmlns="http://www.w3.org/2000/svg" width="24" height="24" fill="none"><path stroke="#000" stroke-linecap="round" stroke-linejoin="round" stroke-width="2" d="m4.172 8.07 2.682 2.013a1.315 1.315 0 0 0 1.964-.46c.172-.341.484-.59.854-.684l2.174-.547a1.95 1.95 0 0 0 1.413-1.415l.867-3.468M21 12a9 9 0 1 1-18 0 9 9 0 0 1 18 0m-9.575 3.998-.823-1.234a1.197 1.197 0 0 1 1.073-1.859l.826.053c.344.022.676.135.962.327l1.371.921a1.453 1.453 0 0 1-.81 2.659h-.98c-.65 0-1.258-.325-1.619-.867"/></svg>
